svg/filled/scan.svg

<svg width="24" height="24" viewBox="0 0 24 24" fill="none" xmlns="http://www.w3.org/2000/svg">
<path fill-rule="evenodd" clip-rule="evenodd" d="M18.25 14C18.6642 14 19 14.3358 19 14.75V18.25C19 18.6642 18.6642 19 18.25 19H14.75C14.3358 19 14 18.6642 14 18.25C14 17.8358 14.3358 17.5 14.75 17.5H17.5V14.75C17.5 14.3358 17.8358 14 18.25 14Z" fill="black"/>
<path fill-rule="evenodd" clip-rule="evenodd" d="M5.75 14C6.16421 14 6.5 14.3358 6.5 14.75V17.5H9.25C9.66421 17.5 10 17.8358 10 18.25C10 18.6642 9.66421 19 9.25 19H5.75C5.33579 19 5 18.6642 5 18.25V14.75C5 14.3358 5.33579 14 5.75 14Z" fill="black"/>
<path fill-rule="evenodd" clip-rule="evenodd" d="M14 5.75C14 5.33579 14.3358 5 14.75 5H18.2458C18.4447 5 18.6355 5.07902 18.7761 5.21967C18.9168 5.36032 18.9958 5.55109 18.9958 5.75V9.25C18.9958 9.66421 18.66 10 18.2458 10C17.8316 10 17.4958 9.66421 17.4958 9.25V6.5H14.75C14.3358 6.5 14 6.16421 14 5.75Z" fill="black"/>
<path fill-rule="evenodd" clip-rule="evenodd" d="M5 5.75C5 5.33579 5.33579 5 5.75 5H9.25C9.66421 5 10 5.33579 10 5.75C10 6.16421 9.66421 6.5 9.25 6.5H6.5V9.25C6.5 9.66421 6.16421 10 5.75 10C5.33579 10 5 9.66421 5 9.25V5.75Z" fill="black"/>
</svg>

<svg xmlns="http://www.w3.org/2000/svg" viewBox="0 0 24 24" fill="currentColor">
  <path fill-rule="evenodd" d="M18.25 14a.75.75 0 01.75.75v3.5a.75.75 0 01-.75.75h-3.5a.75.75 0 010-1.5h2.75v-2.75a.75.75 0 01.75-.75zM5.75 14a.75.75 0 01.75.75v2.75h2.75a.75.75 0 010 1.5h-3.5a.75.75 0 01-.75-.75v-3.5a.75.75 0 01.75-.75zM14 5.75a.75.75 0 01.75-.75h3.496a.75.75 0 01.75.75v3.5a.75.75 0 01-1.5 0V6.5H14.75a.75.75 0 01-.75-.75zM5 5.75A.75.75 0 015.75 5h3.5a.75.75 0 010 1.5H6.5v2.75a.75.75 0 01-1.5 0v-3.5z" clip-rule="evenodd"/>
</svg>
